newicons/supermarket_management_simulator.svg

<?xml version="1.0" encoding="UTF-8"?><svg id="a" xmlns="http://www.w3.org/2000/svg" viewBox="0 0 48 48"><defs><style>.ag{fill:none;stroke:#fff;stroke-linecap:round;stroke-linejoin:round;}</style></defs><g id="e"><path id="f" class="ag" d="M9.50014162,5.5h29c2.2159996,0,4,1.78399992,4,4v29c0,2.2159996-1.7840004,4-4,4H9.50014162c-2.21600008,0-4-1.7840004-4-4V9.5c0-2.21600008,1.78399992-4,4-4Z"/><g id="g"><path id="h" class="ag" d="M17.69684649,12.78648472v24.95191479"/><path id="i" class="ag" d="M25.02316523,11.83779621v26.70978069"/><path id="j" class="ag" d="M11.40479898,19.10160637v12.95617867"/><path id="k" class="ag" d="M33.2460103,17.49741745v15.80754471"/></g><g id="l"><path id="m" class="ag" d="M5.65705442,8.69022083l16.93737888-3.1895113"/><path id="n" class="ag" d="M5.50042248,14.36635971l36.99964666-4.79168987"/><path id="o" class="ag" d="M25.02394152,18.10143089l17.47652817-1.28379059"/><path id="p" class="ag" d="M17.69769907,18.63960075l7.32624245-.53816986"/><path id="q" class="ag" d="M5.50038052,19.53559113l12.19731855-.89599037"/></g><g id="r"><path id="s" class="ag" d="M35.35615587,40.77668381l-4.9702034-.46249008v-4.54462433l1.73713684-.39442062"/><path id="t" class="ag" d="M32.12226915,36.00660324l1.40771484.11205673,1.8632164-.23122787v-1.96733856l-1.40771484-.11205673-1.8632164.23122787v1.96733856Z"/><path id="u" class="ag" d="M36.65427065,38.83942413l-1.29867172.38929749v2.2408638h0l2.59960175.37445831,3.14067841-.9414711v-2.2408638l-.89833832-.12939835"/><path id="v" class="ag" d="M36.12554598,35.86421585l2.55911255-.08626938,1.51226807.50569916v2.79793549l-2.55911255.08626938-1.51226807-.50569916v-2.79793549Z"/></g><g id="w"><path id="x" class="ag" d="M5.50034952,36.39238739l24.88624191,2.7466507"/><path id="y" class="ag" d="M25.02359438,32.83573532l17.47634888.99643326"/><path id="z" class="ag" d="M5.50036526,31.72260094l12.197124.69542885"/><path id="aa" class="ag" d="M35.39281893,35.31167603l7.10759735.50070953"/><path id="ab" class="ag" d="M25.02335024,34.58118057l7.099823.50016022"/><path id="ac" class="ag" d="M5.49946165,33.20578384l12.19757175.85928345"/><path id="ad" class="ag" d="M40.19773531,37.8569603l2.30280304.20022583"/><path id="ae" class="ag" d="M25.0240674,36.53762054l5.3632946.4663353"/><path id="af" class="ag" d="M5.5005827,34.84006882l12.19714117,1.06053162"/></g></g></svg>

<?xml version="1.0" encoding="UTF-8" standalone="no"?>
<svg
   viewBox="0 0 48 48"
   version="1.1"
   id="svg1"
   sodipodi:docname="supermarket_management_simulator.svg"
   inkscape:version="1.2.2 (b0a8486541, 2022-12-01)"
   xml:space="preserve"
   xmlns:inkscape="http://www.inkscape.org/namespaces/inkscape"
   xmlns:sodipodi="http://sodipodi.sourceforge.net/DTD/sodipodi-0.dtd"
   xmlns="http://www.w3.org/2000/svg"
   xmlns:svg="http://www.w3.org/2000/svg"><sodipodi:namedview
     id="namedview1"
     pagecolor="#505050"
     bordercolor="#eeeeee"
     borderopacity="1"
     inkscape:showpageshadow="0"
     inkscape:pageopacity="0"
     inkscape:pagecheckerboard="0"
     inkscape:deskcolor="#505050"
     inkscape:zoom="17.8125"
     inkscape:cx="25.65614"
     inkscape:cy="22.792982"
     inkscape:window-width="1918"
     inkscape:window-height="1053"
     inkscape:window-x="0"
     inkscape:window-y="0"
     inkscape:window-maximized="1"
     inkscape:current-layer="svg1"
     showgrid="false" /><defs
     id="defs1"><style
       id="style1">.a { fill:none;stroke:#fff;stroke-linecap:round;stroke-linejoin:round; }
</style></defs><g
     id="g2545"><path
       style="fill:none;stroke:#ffffff;stroke-linecap:round;stroke-linejoin:round;stroke-opacity:1;stop-color:#000000"
       d="m 9.5,5.5 h 29 c 2.216,0 4,1.784 4,4 v 29 c 0,2.216 -1.784,4 -4,4 h -29 c -2.216,0 -4,-1.784 -4,-4 v -29 c 0,-2.216 1.784,-4 4,-4 z"
       id="path2459" /><g
       id="g2516"><path
         style="fill:none;stroke:#ffffff;stroke-linecap:round;stroke-linejoin:round;stroke-opacity:1;stop-color:#000000"
         d="M 17.696704,12.786485 V 37.7384"
         id="path2451" /><path
         style="fill:none;stroke:#ffffff;stroke-linecap:round;stroke-linejoin:round;stroke-opacity:1;stop-color:#000000"
         d="M 25.023024,11.837796 V 38.547577"
         id="path2449" /><path
         style="fill:none;stroke:#ffffff;stroke-linecap:round;stroke-linejoin:round;stroke-opacity:1;stop-color:#000000"
         d="m 11.404657,19.101607 v 12.95618"
         id="path2447" /><path
         style="fill:none;stroke:#ffffff;stroke-linecap:round;stroke-linejoin:round;stroke-opacity:1;stop-color:#000000"
         d="m 33.24587,17.497418 -10e-7,15.807544"
         id="path2445" /></g><g
       id="g2510"><path
         style="fill:none;stroke:#ffffff;stroke-linecap:round;stroke-linejoin:round;stroke-opacity:1;stop-color:#000000"
         d="M 5.656913,8.6902207 22.594292,5.5007097"
         id="path2457" /><path
         style="fill:none;stroke:#ffffff;stroke-linecap:round;stroke-linejoin:round;stroke-opacity:1;stop-color:#000000"
         d="M 5.5002807,14.36636 42.499929,9.5746695"
         id="path2455" /><path
         style="fill:none;stroke:#ffffff;stroke-linecap:round;stroke-linejoin:round;stroke-opacity:1;stop-color:#000000"
         d="M 25.0238,18.10143 42.500329,16.81764"
         id="path2443" /><path
         style="fill:none;stroke:#ffffff;stroke-linecap:round;stroke-linejoin:round;stroke-opacity:1;stop-color:#000000"
         d="M 17.697558,18.639601 25.0238,18.10143"
         id="path2441" /><path
         style="fill:none;stroke:#ffffff;stroke-linecap:round;stroke-linejoin:round;stroke-opacity:1;stop-color:#000000"
         d="M 5.5002389,19.535591 17.697558,18.639601"
         id="path2439" /></g><g
       id="g2492"><path
         style="fill:none;stroke:#ffffff;stroke-linecap:round;stroke-linejoin:round;stroke-opacity:1;stop-color:#000000"
         d="M 35.356016,40.776685 30.385811,40.314192 V 35.76957 l 1.737137,-0.394421"
         id="path2433" /><path
         style="fill:none;stroke:#ffffff;stroke-linecap:round;stroke-linejoin:round;stroke-opacity:1;stop-color:#000000"
         d="m 32.122127,36.006602 1.407714,0.112056 1.863217,-0.231229 v -1.96734 l -1.407714,-0.112056 -1.863217,0.231229 z"
         id="path2431" /><path
         style="fill:none;stroke:#ffffff;stroke-linecap:round;stroke-linejoin:round;stroke-opacity:1;stop-color:#000000"
         d="m 36.654129,38.839423 -1.298671,0.389299 v 2.240863 0 l 2.599603,0.374457 3.14068,-0.941473 v -2.240863 l -0.898337,-0.1294"
         id="path2429" /><path
         style="fill:none;stroke:#ffffff;stroke-linecap:round;stroke-linejoin:round;stroke-opacity:1;stop-color:#000000"
         d="m 36.125405,35.864217 2.559113,-0.08627 1.51227,0.505698 v 2.797935 l -2.559113,0.08627 -1.51227,-0.505698 z"
         id="path2427" /></g><g
       id="g2503"><path
         style="fill:none;stroke:#ffffff;stroke-linecap:round;stroke-linejoin:round;stroke-opacity:1;stop-color:#000000"
         d="m 5.500208,36.392389 24.886242,2.74665"
         id="path2453" /><path
         style="fill:none;stroke:#ffffff;stroke-linecap:round;stroke-linejoin:round;stroke-opacity:1;stop-color:#000000"
         d="m 25.023452,32.835735 17.476349,0.996432"
         id="path2437" /><path
         style="fill:none;stroke:#ffffff;stroke-linecap:round;stroke-linejoin:round;stroke-opacity:1;stop-color:#000000"
         d="M 5.5002238,31.7226 17.697347,32.41803"
         id="path2435" /><path
         style="fill:none;stroke:#ffffff;stroke-linecap:round;stroke-linejoin:round;stroke-opacity:1;stop-color:#000000"
         d="m 35.392676,35.311677 7.107599,0.50071"
         id="path2425" /><path
         style="fill:none;stroke:#ffffff;stroke-linecap:round;stroke-linejoin:round;stroke-opacity:1;stop-color:#000000"
         d="m 25.023208,34.58118 7.099824,0.500161"
         id="path2423" /><path
         style="fill:none;stroke:#ffffff;stroke-linecap:round;stroke-linejoin:round;stroke-opacity:1;stop-color:#000000"
         d="m 5.49932,33.205782 12.197572,0.859283"
         id="path2421" /><path
         style="fill:none;stroke:#ffffff;stroke-linecap:round;stroke-linejoin:round;stroke-opacity:1;stop-color:#000000"
         d="m 40.197593,37.856959 2.302805,0.200227"
         id="path2419" /><path
         style="fill:none;stroke:#ffffff;stroke-linecap:round;stroke-linejoin:round;stroke-opacity:1;stop-color:#000000"
         d="m 25.023926,36.537619 5.363295,0.466336"
         id="path2417" /><path
         style="fill:none;stroke:#ffffff;stroke-linecap:round;stroke-linejoin:round;stroke-opacity:1;stop-color:#000000"
         d="M 5.5004412,34.840067 17.697583,35.900599"
         id="path1618" /></g></g></svg>
